X:1
T:Duncan MacNeill Esq. Farewell to Melfort
C:Capt N.A. MacNeill
R:March
M:2/4
L:1/16
Q:1/4=78
K:D
[|: {g}A>B | {GdG}c2{g}c<e {gAGAG}A2{g}c<d | {g}f>e{g}A>B {gcd}c2{g}A>B | {GdG}c2{g}c<e {g}f>e{g}A>B | {gcd}c2{g}B2 {GdGe}B2{g}A>B | 
{GdG}c2{g}c<e {gAGAG}A2{g}c<d | {g}f>e{g}A>B {gcd}c2{gde}d>c | {gBd}B2{g}c<e {g}f>e{gcd}c2 | {GBG}A4 {GAG}A2 :|]
[|: {g}c<e | {g}f2{GdG}f>g {ag}a2g<{a}f | {g}e2{GdG}e>c {gfg}f2{g}e>c | {g}B2{GdGe}B>{d}c {g}f>e{g}A>B | {gcd}c2{g}B2  {GdGe}B2[1{g}c<e | 
{g}f2{GdG}f>g {ag}a2g<{a}f | {g}e2{GdG}e>c {gfg}f2{g}e>c | {gBd}B2{g}c<e {g}f>e{gcd}c2 | {GBG}A4 {GAG}A2 :|]
[2 {g}A>B | {GdG}c2{g}c<e {gAGAG}A2{g}c<d | {g}f>e{g}A>B {gcd}c2{gde}d>c | {gBd}B2{g}c<e {g}f>e{gcd}c2 | {GBG}A4 {GAG}A2 ||
[|: {g}A>B | {g}c<{d}A{g}c<e {g}c<{d}A{g}c<e | {gde}d>B{g}f>e {gcd}c2{g}A>B | {g}c<{d}A{g}c<e {g}f>e{g}A>B | {gcd}c2{g}B2 {GdGe}B2{g}A>B | 
{g}c<{d}A{g}c<e {g}c<{d}A{g}c<e | {gde}d>B{g}f>e {gcd}c2{gde}d>c | {gBd}B2{g}c<e {g}f>e{gcd}c2 | {GBG}A4 {GAG}A2 :|]
[|: {g}c<e | {g}f2{GdG}f>g a>g{a}f>e | {g}e2{GdG}e>c {g}f>e{gde}d>c | {g}B<{d}A{gde}d>c {g}f>e{g}A>B | {gcd}c2{g}B2  {GdGe}B2[1{g}c<e | 
{g}f2{GdG}f>g a>g{a}f>e | {g}e2{GdG}e>c {gfg}f2{g}e>c | {gBd}B2{g}c<e {g}f>e{gcd}c2 | {GBG}A4 {GAG}A2 :|]
[2 {g}A>B | {g}c<{d}A{g}c<e {g}c<{d}A{g}c<e | {gde}d>B{g}f>e {gcd}c2{gde}d>c | {gBd}B2{g}c<e {g}f>e{gcd}c2 | {GBG}A4 {GAG}A4  |]
